assets/logos/amazon-logo.svg

<svg width="104" height="32" viewBox="0 0 104 32" fill="none" xmlns="http://www.w3.org/2000/svg">
<path fill-rule="evenodd" clip-rule="evenodd" d="M64.3991 25.0249C58.4136 29.5732 49.738 31.9999 42.2684 31.9999C31.7949 31.9999 22.3661 28.0063 15.2328 21.3641C14.6724 20.8417 15.1745 20.1299 15.847 20.5367C23.5453 25.1543 33.0638 27.9323 42.8961 27.9323C49.5273 27.9323 56.822 26.5179 63.5293 23.5827C64.5426 23.139 65.39 24.2668 64.3991 25.0249Z" fill="#FF9900"/>
<path fill-rule="evenodd" clip-rule="evenodd" d="M66.8877 22.0898C66.1255 21.0821 61.8303 21.6137 59.9024 21.8494C59.315 21.9234 59.2254 21.3964 59.7544 21.0174C63.1753 18.5352 68.7887 19.2517 69.4433 20.0837C70.0979 20.9203 69.2729 26.7213 66.0582 29.49C65.565 29.9153 65.0943 29.6888 65.314 29.1249C66.0358 27.2667 67.6544 23.1021 66.8877 22.0898Z" fill="#FF9900"/>
<path fill-rule="evenodd" clip-rule="evenodd" d="M60.0367 3.4944V1.08157C60.0367 0.716416 60.3057 0.471436 60.6286 0.471436H71.1066C71.4428 0.471436 71.7118 0.721038 71.7118 1.08157V3.14773C71.7074 3.4944 71.4249 3.94738 70.9227 4.66383L65.4932 12.6557C67.5108 12.6049 69.6405 12.9146 71.4697 13.9777C71.8822 14.2181 71.9943 14.5694 72.0257 14.916V17.4906C72.0257 17.8419 71.6491 18.2533 71.2545 18.0407C68.0309 16.2981 63.7491 16.1086 60.1847 18.0592C59.8215 18.2626 59.4404 17.8558 59.4404 17.5045V15.0593C59.4404 14.6664 59.4449 13.9962 59.826 13.3999L66.1164 4.09992H60.642C60.3057 4.09992 60.0367 3.85494 60.0367 3.4944Z" fill="black"/>
<path fill-rule="evenodd" clip-rule="evenodd" d="M21.8146 18.5492H18.6268C18.3219 18.5261 18.0798 18.2904 18.0574 17.99V1.1233C18.0574 0.785874 18.3309 0.517781 18.6716 0.517781H21.6442C21.9536 0.531638 22.2001 0.776627 22.2226 1.0817V3.28652H22.2809C23.0565 1.15565 24.5136 0.161865 26.4774 0.161865C28.4726 0.161865 29.719 1.15565 30.6157 3.28652C31.3869 1.15565 33.1399 0.161865 35.0185 0.161865C36.3546 0.161865 37.8163 0.730404 38.7085 2.00615C39.7173 3.42519 39.511 5.48672 39.511 7.29403L39.5066 17.9391C39.5066 18.2765 39.2331 18.5492 38.8923 18.5492H35.709C35.3907 18.5261 35.1351 18.2627 35.1351 17.9391V8.99964C35.1351 8.28781 35.1979 6.51286 35.0454 5.83801C34.8078 4.70556 34.0949 4.38662 33.1713 4.38662C32.4002 4.38662 31.5931 4.91818 31.2658 5.76868C30.9385 6.61918 30.9699 8.04283 30.9699 8.99964V17.9391C30.9699 18.2765 30.6964 18.5492 30.3557 18.5492H27.1724C26.8496 18.5261 26.5985 18.2627 26.5985 17.9391L26.594 8.99964C26.594 7.11838 26.8944 4.34964 24.6302 4.34964C22.3391 4.34964 22.4288 7.04904 22.4288 8.99964V17.9391C22.4288 18.2765 22.1553 18.5492 21.8146 18.5492Z" fill="black"/>
<path fill-rule="evenodd" clip-rule="evenodd" d="M80.7325 0.161865C85.4626 0.161865 88.0227 4.34964 88.0227 9.6745C88.0227 14.8191 85.1936 18.9005 80.7325 18.9005C76.0875 18.9005 73.5588 14.7128 73.5588 9.49423C73.5588 4.24333 76.1189 0.161865 80.7325 0.161865ZM80.7594 3.60546C78.41 3.60546 78.2621 6.90576 78.2621 8.96267C78.2621 11.0242 78.2307 15.4246 80.7325 15.4246C83.2029 15.4246 83.3195 11.8747 83.3195 9.71147C83.3195 8.28782 83.2612 6.58682 82.8442 5.23712C82.4855 4.06306 81.7727 3.60546 80.7594 3.60546Z" fill="black"/>
<path fill-rule="evenodd" clip-rule="evenodd" d="M94.1563 18.5492H90.9819C90.6636 18.5261 90.408 18.2627 90.408 17.9391L90.4036 1.06783C90.4305 0.758138 90.695 0.517781 91.0178 0.517781H93.9724C94.2504 0.531638 94.4791 0.725783 94.5419 0.989253V3.56848H94.6001C95.4924 1.26197 96.7433 0.161865 98.9447 0.161865C100.375 0.161865 101.769 0.693427 102.666 2.14944C103.5 3.49914 103.5 5.76868 103.5 7.40034V18.0177C103.464 18.3135 103.2 18.5492 102.886 18.5492H99.6889C99.3975 18.5261 99.1554 18.3043 99.124 18.0177V8.85635C99.124 7.01207 99.3303 4.31266 97.1288 4.31266C96.3532 4.31266 95.6403 4.84885 95.2861 5.66236C94.8378 6.69313 94.7795 7.71928 94.7795 8.85635V17.9391C94.775 18.2765 94.497 18.5492 94.1563 18.5492Z" fill="black"/>
<path fill-rule="evenodd" clip-rule="evenodd" d="M51.684 10.4926C51.684 11.7729 51.7154 12.8407 51.0877 13.9777C50.5811 14.9022 49.774 15.4707 48.8818 15.4707C47.6578 15.4707 46.9404 14.5093 46.9404 13.0903C46.9404 10.2892 49.375 9.78073 51.684 9.78073V10.4926ZM54.8987 18.5029C54.688 18.6971 54.3831 18.7109 54.1455 18.5815C53.0873 17.6756 52.8946 17.2549 52.3162 16.3906C50.5676 18.2302 49.3257 18.7803 47.0615 18.7803C44.3759 18.7803 42.291 17.0747 42.291 13.6588C42.291 10.9918 43.6899 9.17521 45.6895 8.28773C47.4202 7.50194 49.8368 7.36328 51.684 7.14603V6.72078C51.684 5.93962 51.7423 5.01516 51.2939 4.34031C50.9084 3.73479 50.1641 3.48519 49.505 3.48519C48.29 3.48519 47.2094 4.12769 46.9449 5.4589C46.8911 5.75473 46.6804 6.04593 46.389 6.0598L43.2998 5.71775C43.0398 5.65766 42.7483 5.44041 42.8246 5.02903C43.533 1.16482 46.9225 0 49.9534 0C51.5047 0 53.5312 0.42525 54.7552 1.63628C56.3065 3.12928 56.1586 5.12148 56.1586 7.28932V12.4108C56.1586 13.95 56.7773 14.6249 57.3601 15.4569C57.5619 15.7527 57.6067 16.1086 57.3467 16.3305C56.6966 16.8898 55.5398 17.9298 54.9032 18.5122L54.8987 18.5029Z" fill="black"/>
<path fill-rule="evenodd" clip-rule="evenodd" d="M9.89298 10.4928C9.89298 11.7732 9.92437 12.8409 9.29667 13.978C8.79003 14.9024 7.98748 15.471 7.09078 15.471C5.86678 15.471 5.1539 14.5095 5.1539 13.0905C5.1539 10.2894 7.58845 9.78097 9.89298 9.78097V10.4928ZM13.1077 18.5032C12.8969 18.6973 12.5921 18.7112 12.3544 18.5818C11.2963 17.6758 11.108 17.2552 10.5252 16.3908C8.77658 18.2305 7.53913 18.7805 5.27047 18.7805C2.58932 18.7805 0.5 17.0749 0.5 13.6591C0.5 10.992 1.90334 9.17545 3.89851 8.28797C5.62915 7.50219 8.04577 7.36352 9.89298 7.14627V6.72103C9.89298 5.93986 9.95127 5.01541 9.5074 4.34056C9.11733 3.73504 8.37307 3.48544 7.71847 3.48544C6.50344 3.48544 5.41842 4.12793 5.1539 5.45914C5.10009 5.75497 4.88937 6.04617 4.60242 6.06004L1.50879 5.71799C1.24875 5.6579 0.961802 5.44065 1.03354 5.02928C1.74642 1.16506 5.13148 0.000244141 8.16234 0.000244141C9.71364 0.000244141 11.7402 0.425494 12.9642 1.63653C14.5155 3.12952 14.3675 5.12172 14.3675 7.28956V12.411C14.3675 13.9503 14.9863 14.6251 15.5691 15.4571C15.7754 15.7529 15.8202 16.1089 15.5602 16.3307C14.91 16.89 13.7533 17.93 13.1166 18.5124L13.1077 18.5032Z" fill="black"/>
</svg>

<svg xmlns="http://www.w3.org/2000/svg" width="104" height="32" fill="none"><path fill="#F90" fill-rule="evenodd" d="M64.4 25.025C58.413 29.573 49.737 32 42.267 32c-10.473 0-19.902-3.994-27.035-10.636-.56-.522-.059-1.234.614-.827 7.698 4.617 17.217 7.395 27.05 7.395 6.63 0 13.925-1.414 20.632-4.35 1.014-.443 1.861.685.87 1.443Z" clip-rule="evenodd"/><path fill="#F90" fill-rule="evenodd" d="M66.888 22.09c-.763-1.008-5.058-.476-6.986-.24-.587.073-.677-.454-.148-.833 3.421-2.482 9.035-1.765 9.69-.933.654.836-.171 6.637-3.386 9.406-.493.425-.964.199-.744-.365.722-1.858 2.34-6.023 1.574-7.035Z" clip-rule="evenodd"/><path fill="#000" fill-rule="evenodd" d="M60.037 3.494V1.082c0-.366.269-.61.592-.61h10.478c.336 0 .605.249.605.61v2.066c-.005.346-.287.8-.79 1.516l-5.429 7.992c2.018-.051 4.148.259 5.977 1.322.412.24.524.591.556.938v2.575c0 .35-.377.762-.772.55-3.223-1.743-7.505-1.932-11.07.018-.362.204-.744-.203-.744-.555V15.06c0-.393.005-1.063.386-1.66l6.29-9.3h-5.474a.588.588 0 0 1-.605-.605ZM21.815 18.55h-3.188a.61.61 0 0 1-.57-.56V1.123c0-.337.274-.605.615-.605h2.972c.31.014.556.259.579.564v2.205h.058c.776-2.131 2.233-3.125 4.196-3.125 1.996 0 3.242.994 4.139 3.125.77-2.131 2.524-3.125 4.403-3.125 1.336 0 2.797.568 3.69 1.844 1.008 1.42.802 3.48.802 5.288l-.004 10.645a.61.61 0 0 1-.615.61H35.71a.616.616 0 0 1-.574-.61V9c0-.711.063-2.486-.09-3.161-.237-1.132-.95-1.451-1.874-1.451-.77 0-1.578.531-1.905 1.382-.327.85-.296 2.274-.296 3.23v8.94a.61.61 0 0 1-.614.61h-3.184a.613.613 0 0 1-.573-.61L26.594 9c0-1.88.3-4.65-1.964-4.65-2.29 0-2.201 2.7-2.201 4.65v8.94a.61.61 0 0 1-.614.61ZM80.733.162c4.73 0 7.29 4.188 7.29 9.512 0 5.145-2.83 9.227-7.29 9.227-4.645 0-7.174-4.188-7.174-9.407 0-5.25 2.56-9.332 7.174-9.332Zm.026 3.443c-2.349 0-2.497 3.3-2.497 5.358 0 2.061-.031 6.462 2.47 6.462 2.47 0 2.588-3.55 2.588-5.714 0-1.423-.059-3.124-.476-4.474-.358-1.174-1.071-1.632-2.085-1.632ZM94.156 18.55h-3.174a.616.616 0 0 1-.574-.61l-.004-16.872a.61.61 0 0 1 .614-.55h2.954a.615.615 0 0 1 .57.471v2.58h.058c.892-2.307 2.143-3.407 4.345-3.407 1.43 0 2.824.531 3.721 1.987.834 1.35.834 3.62.834 5.251v10.618a.618.618 0 0 1-.614.531h-3.197a.611.611 0 0 1-.565-.531V8.856c0-1.844.206-4.543-1.995-4.543-.776 0-1.489.536-1.843 1.35-.448 1.03-.507 2.056-.507 3.193v9.083a.622.622 0 0 1-.623.61ZM51.684 10.493c0 1.28.031 2.348-.596 3.485-.507.924-1.314 1.493-2.206 1.493-1.224 0-1.942-.962-1.942-2.38 0-2.802 2.435-3.31 4.744-3.31v.712Zm3.215 8.01a.65.65 0 0 1-.754.078c-1.058-.905-1.25-1.326-1.829-2.19-1.748 1.84-2.99 2.39-5.255 2.39-2.685 0-4.77-1.706-4.77-5.122 0-2.667 1.399-4.484 3.399-5.371 1.73-.786 4.147-.925 5.994-1.142v-.425c0-.781.058-1.706-.39-2.38-.386-.606-1.13-.856-1.789-.856-1.215 0-2.296.643-2.56 1.974-.054.296-.265.587-.556.6l-3.09-.341c-.26-.06-.55-.278-.474-.689C43.533 1.165 46.922 0 49.953 0c1.552 0 3.578.425 4.802 1.636C56.306 3.13 56.16 5.121 56.16 7.29v5.122c0 1.539.618 2.214 1.201 3.046.202.296.247.652-.013.873-.65.56-1.807 1.6-2.444 2.182l-.004-.01ZM9.893 10.493c0 1.28.031 2.348-.596 3.485-.507.924-1.31 1.493-2.206 1.493-1.224 0-1.937-.962-1.937-2.38 0-2.802 2.434-3.31 4.739-3.31v.712Zm3.215 8.01a.65.65 0 0 1-.754.079c-1.058-.906-1.246-1.327-1.829-2.191-1.748 1.84-2.986 2.39-5.255 2.39-2.68 0-4.77-1.706-4.77-5.122 0-2.667 1.403-4.484 3.399-5.371 1.73-.786 4.147-.924 5.994-1.142v-.425c0-.781.058-1.706-.386-2.38-.39-.606-1.134-.856-1.789-.856-1.215 0-2.3.643-2.564 1.974-.054.296-.265.587-.552.601L1.51 5.718c-.26-.06-.547-.277-.475-.689C1.746 1.165 5.13 0 8.162 0c1.552 0 3.578.425 4.802 1.637 1.551 1.493 1.403 3.485 1.403 5.653v5.121c0 1.54.62 2.214 1.202 3.046.206.296.251.652-.009.874-.65.559-1.807 1.599-2.443 2.181l-.01-.009Z" clip-rule="evenodd"/></svg>
